X: 593
M: 2/4
L: 1/16
K: D
V: 1
|:\
(defg) ad3 | (ec3) d4 |\
(AF3) d4 | (AF3) E4 |\
(ec3) dB3 | A6 z2 :|\
|:\
(ABcd) (eA3) | (dA3) (fa3) |
(FA3) D=c3 | BG3 G4 |\
(ec3) (Ac3) | dD3 D4 |\
(BG3) (Fd3) | (BG3) A4 |\
df3 AF3 | d2D2 D4 :|
V: 2 clef=bass middle=d
|:\
d4d4 | d4d4 | d4d4 | a4A4 |\
d4d4 | d4d4 | e4E4 | A6 z2 :|
|:\
a4a4 | f4d4 | d4f4 | g4G4 |\
g4g4 | g4g4 | a4A4 | d4d4 |\
d4d4 | d4d4 | a4A4 | d4d4 :|

